X:1
T:Flute Solo in F Major
T:Flute Solo
T:Flute Solo in F Major
T:adapted from Violin Solo in C Major
T:Francesco Geminiani (1687-1762) arr. Felix Scharpf 
T:twoflutes 2020 / Felix Scharpf / https://commons.wikimedia.org/wiki/File:Francesco_Geminiani.jpg
T:twoflutes 2020 / Felix Scharpf / https://commons.wikimedia.org/wiki/File:Francesco_Geminiani.jpg
T:twoflutes 2020 / Felix Scharpf / https://commons.wikimedia.org/wiki/File:Francesco_Geminiani.jpg
C:Francesco Geminiani
Z:twoflutes 2020 / Felix Scharpf / https://commons.wikimedia.org/wiki/File:Francesco_Geminiani.jpg
L:1/8
Q:1/4=92
M:4/4
K:F
V:1 treble nm="Flöte" snm="Fl."
V:1
!mf!"^(rubato)" (f/a/c'/).f/ (e/g/c'/).e/ (d/f/a/d'/) (A/c/f/a/) | %1
 (B/d/f/b/) (c/e/g/c'/) .a/.f/.c/.A/[Q:1/4=50] .F/[Q:1/4=92]c'/(f/a/) | %2
 (g/c'/)(e/g/) (f/d'/)(d/f/) (e/g/c'/).c/ (a/c'/)!>!F/a/ | %3
 (g/c'/)!>!E/g/ (f/d'/)!>!D/f/ (e/c'/)!>!C/g/ (a/c'/f'/).a/ | %4
 (=b/g/)(c'/e/) (G/c'/)(G/b/) .d/.G/.E/.D/[Q:1/4=50] .C/[Q:1/4=92](g/a/b/ | %5
 .c'/)(c/e/g/ .b/)(c/e/g/ .a/).f/.c/.A/ .F/(c'/d'/e'/ | %6
 .f'/)(f/a/c'/ ._e'/)(f/a/c'/ .d'/).b/.f/.d/[Q:1/4=50] .B/[Q:1/4=92](d'/b/d'/) | %7
 !>!A/c'/(a/c'/) !>!G/(b/g/b/) (!>!F/A/c/f/ a/c'/f'/).a/ | %8
 (c/f/)(g/f'/) (g/f'/)(g/e'/) .f'/.c'/.a/.f/ .c/.A/.F/[Q:1/4=50].C/ | %9
[Q:1/4=92] (f/a/c'/).f/ (_e/g/c'/).e/ (d/f/b/d'/) (d/^f/a/c'/) | %10
 (g/b/d'/).g/ (f/a/d'/).f/ (e/g/c'/e'/) (e/g/b/d'/) | %11
 (a/^c'/e'/).a/ (g/b/e'/).g/ (f/a/d'/f'/) (a/c'/e'/[Q:1/4=50]!breath!.g'/) | %12
[Q:1/4=92] (.f'/d'/)!>!d/.d'/ !>!e/.d'/!>!^f/.c'/ !>!g/.b/!>!G/.g/ !>!A/.g/!>!=B/.=f/ | %13
 !>!c/.e/!>!c/.e'/ !>!=B/d/!>!B/.d'/ !>!A/c/!>!A/.c'/ !>!G/B/!>!G/!>!.=b/ | %14
 !>!F/A/!>!F/.a/ !>!E/G/!>!E/.g/ !>!D/F/!>!D/.f/ !>!C/E/!>!C/[Q:1/4=50].e/ | %15
[Q:1/4=92] (d/=B/G/).g/ (_B/g/)(A/g/) (D/F/A/d/) (A/f/)(G/f/) | %16
 (C/E/G/c/) (G/=B/d/g/) (c/e/g/c'/) (g/=b/d'/[Q:1/4=50].g'/) | %17
[Q:1/4=92] (g/c'/e'/.g'/) (g/c'/e'/.g'/) (g/c'/d'/.g'/) (g/=b/d'/.g'/) | %18
 (c/e/g/).c/ (=B/d/g/).B/ (A/c/e/a/) (e/g/c'/e'/) | %19
 (f/a/c'/f'/) (g/=b/d'/g'/) .e'/.c'/.g/.e/[Q:1/4=50] .c/[Q:1/4=92](e'/d'/e'/) | %20
 !>!=B/d'/(c'/d'/) !>!A/(c'/=b/c'/) (G/B/d/g/) !>!G/(b/a/b/) | %21
 !>!^F/(a/g/a/) !>!E/(g/^f/g/) (D/F/A/d/)[Q:1/4=30] .D/[Q:1/4=92](a/g/a/) | %22
 (b/d'/)(g/b/) (a/d'/)(^f/d'/) (b/d'/)(a/d'/) .g/(c'/b/c'/) | %23
 (d'/f'/)(b/d'/) (c'/f'/)(a/f'/) (d'/f'/)(c'/f'/) .b/(f'/e'/f'/) | %24
 (g'/d'/b/g/)[Q:1/4=50] .c'/[Q:1/4=92](_e'/d'/e'/) (f'/c'/a/f/) .b/(d'/c'/d'/) | %25
 (_e'/b/g/_e/) .a/(c'/b/c'/) (d'/a/^f/d/) .g/(b/a/b/) | %26
[Q:1/4=50] .A/[Q:1/4=92](c'/b/c'/) .B/(d'/c'/d'/) .c/(_e'/d'/e'/) (d/^f/a/d'/) | %27
 (b/g/)(a/g/) (A/g/)(A/^f/) (g/b/d'/).g/ (=f/a/d'/).f/ | %28
 .e/.g/.e/.c/[Q:1/4=30] .C/[Q:1/4=92](c/e/g/ c'/e'/g'/).c'/ (b/d'/g'/).b/ | %29
 .a/.f/.c/.A/ .F/(f/a/c'/) .g/.e/.c/.G/ .C/(c/e/g/) | %30
 .f/.d/.A/.F/ .D/(A/d/f/) .e/.^c/.A/.E/[Q:1/4=50] .^C/[Q:1/4=92](e/f/g/) | %31
 !>!D/(f/g/a/) !>!E/(g/a/b/) !>!F/(a/b/c'/) !>!G/(b/c'/d'/) | %32
 !>!A/(d'/e'/d'/) (e/d'/)(A/^c'/) .d'/.a/.f/.d/[Q:1/4=50] .D/[Q:1/4=92](d'/=c'/b/) | %33
 .a/.f/.c/.A/ .F/(c'/b/a/) .b/.g/.d/.B/ .G/(b/a/g/) | %34
 !>!F/a/!>!G/b/ !>!A/c'/!>!B/d'/ !>!.c/.G/.E/.D/[Q:1/4=30] .C/[Q:1/4=92](c/e/g/) | %35
 (f/a/c'/).f/ (e/g/c'/).e/ (d/f/a/d'/) !>!A/c'/(c/A/) | %36
 !>!B/d'/(d/B/) !>!c/e'/(e/c/) .f/.c/.A/[Q:1/4=30].F/[Q:1/4=92] (a/f/)(d'/f/) | %37
 (!>!e/g/)(c/g/) (c'/g/)(c'/_e/) (!>!d/f/)(B/f/) (b/f/)(b/d/) | %38
 (!>!c/e/)(A/e/) (a/e/)(a/c/) (!>!B/d/)(G/d/) (g/c/)(g/B/) | %39
 (!>!A/c/)(F/[Q:1/4=50].c/)[Q:1/4=92] (B/d/)(G/d/) (c/e/)(A/e/) (d/f/)(B/f/) | %40
 !>!e/(c'/=b/c'/) (c/e/)(c/g/) !>!c/(_b/a/b/) (c/e/)(c/g/) | %41
 !>!c/(a/g/a/) !>!G/(b/a/b/) !>!c/(c'/b/c'/) !>!B/(d'/c'/d'/) | %42
 (e/c/)(f/A/)[Q:1/4=80]"_poco rall." .C/[Q:1/4=70].f/[Q:1/4=60].G/.e/[Q:1/4=50] .f/[Q:1/4=92]"_a tempo"!>(!(a/c'/)!>!A/ f/(b/d'/)!>!B/ | %43
 f/(a/c'/)!>!A/ c/(e/g/)!>!E/ c/(f/a/)!>!F/ c/(e/g/)!>!E/ | %44
 c/(f/a/)!>!F/ c/(e/_a/)!>!F/ c/(f/g/)[Q:1/4=80]"_rit."!>!C/[Q:1/4=70] c/(e/[Q:1/4=60]g/)[Q:1/4=50]"^ 5 40"!>!C/!>)! | %45
[Q:1/4=120]!p! F8 |] %46

